ui/StatusQ/src/assets/img/icons/pause.svg

<svg fill="none" height="24" viewBox="0 0 24 24" width="24" xmlns="http://www.w3.org/2000/svg"><g clip-rule="evenodd" fill="#000" fill-rule="evenodd"><path d="m8.25 5.25c-1.51878 0-2.75 1.23122-2.75 2.75v8c0 1.5188 1.23122 2.75 2.75 2.75s2.75-1.2312 2.75-2.75v-8c0-1.51878-1.23122-2.75-2.75-2.75zm-1.25 2.75c0-.69036.55964-1.25 1.25-1.25s1.25.55964 1.25 1.25v8c0 .6904-.55964 1.25-1.25 1.25s-1.25-.5596-1.25-1.25z"/><path d="m15.75 5.25c-1.5188 0-2.75 1.23122-2.75 2.75v8c0 1.5188 1.2312 2.75 2.75 2.75s2.75-1.2312 2.75-2.75v-8c0-1.51878-1.2312-2.75-2.75-2.75zm-1.25 2.75c0-.69036.5596-1.25 1.25-1.25s1.25.55964 1.25 1.25v8c0 .6904-.5596 1.25-1.25 1.25s-1.25-.5596-1.25-1.25z"/></g></svg>

<svg width="24" height="24" viewBox="0 0 24 24" fill="none" xmlns="http://www.w3.org/2000/svg">
<path fill-rule="evenodd" clip-rule="evenodd" d="M8.25 5.25C6.73122 5.25 5.5 6.48122 5.5 8V16C5.5 17.5188 6.73122 18.75 8.25 18.75C9.76878 18.75 11 17.5188 11 16V8C11 6.48122 9.76878 5.25 8.25 5.25ZM7 8C7 7.30964 7.55964 6.75 8.25 6.75C8.94036 6.75 9.5 7.30964 9.5 8V16C9.5 16.6904 8.94036 17.25 8.25 17.25C7.55964 17.25 7 16.6904 7 16V8Z" fill="black"/>
<path fill-rule="evenodd" clip-rule="evenodd" d="M15.75 5.25C14.2312 5.25 13 6.48122 13 8V16C13 17.5188 14.2312 18.75 15.75 18.75C17.2688 18.75 18.5 17.5188 18.5 16V8C18.5 6.48122 17.2688 5.25 15.75 5.25ZM14.5 8C14.5 7.30964 15.0596 6.75 15.75 6.75C16.4404 6.75 17 7.30964 17 8V16C17 16.6904 16.4404 17.25 15.75 17.25C15.0596 17.25 14.5 16.6904 14.5 16V8Z" fill="black"/>
</svg>
